public/media/linkedin.svg

<svg fill="none" height="50" viewBox="0 0 50 50" width="50" xmlns="http://www.w3.org/2000/svg"><path clip-rule="evenodd" d="m37.8 10h-25.6c-1.2 0-2.2 1-2.2 2.2v25.7c0 1.2 1 2.2 2.2 2.2h25.6c1.2 0 2.2-1 2.2-2.2v-25.7c0-1.2-1-2.2-2.2-2.2zm-23.4 25.6h4.4v-14.4h-4.4zm2.3-16.3c-1.4 0-2.6-1.2-2.6-2.6s1.2-2.6 2.6-2.6 2.6 1.2 2.6 2.6-1.2 2.6-2.6 2.6zm18.9 16.3h-4.4v-7c0-1.7 0-3.8-2.3-3.8s-2.7 1.8-2.7 3.7v7.1h-4.4v-14.4h4.2v2c.6-1.1 2-2.3 4.2-2.3 4.5 0 5.3 3 5.3 6.8v7.9z" fill="#fff" fill-rule="evenodd"/></svg>

<svg width="50" height="50" viewBox="0 0 50 50" fill="none" xmlns="http://www.w3.org/2000/svg">
<path fill-rule="evenodd" clip-rule="evenodd" d="M37.8 10H12.2C11 10 10 11 10 12.2V37.9C10 39.1 11 40.1 12.2 40.1H37.8C39 40.1 40 39.1 40 37.9V12.2C40 11 39 10 37.8 10ZM14.4 35.6H18.8V21.2H14.4V35.6ZM16.7 19.3C15.3 19.3 14.1 18.1 14.1 16.7C14.1 15.3 15.3 14.1 16.7 14.1C18.1 14.1 19.3 15.3 19.3 16.7C19.3 18.1 18.1 19.3 16.7 19.3ZM35.6 35.6H31.2V28.6C31.2 26.9 31.2 24.8 28.9 24.8C26.6 24.8 26.2 26.6 26.2 28.5V35.6H21.8V21.2H26V23.2C26.6 22.1 28 20.9 30.2 20.9C34.7 20.9 35.5 23.9 35.5 27.7V35.6H35.6Z" fill="white"/>
</svg>
